X: 1666
T: Sana Lâyık mı Ey Gül-ten
C: Dede Efendi
O: Turkey
F: http://compmusic.upf.edu/node/140
N: mahur--sarki--aksak--sana_layik_mi--dede_efendi
N: makam= mahur
N: form= sarki
N: usul= aksak = 9/8
M: 9/8
L: 1/16
K: C ^9/8f   
Q: 1/4=132
%%MIDI tuningsystem comma53
d2g2 fga2 abc'/d'/c'/b/ a/b/a/g/f/g/f/e/ d2 | \
w:  ARANAĞME  | 
d2 g2fg aba3/2g/ fed3/2c/ BAG2  | 
w:   | 
d2g2 fga2 abc'/d'/c'/b/ a/b/a/g/f/g/f/e/ d2 | \
w:   | 
d2 g2fg aba3/2g/ fag4z2  | 
w:   | 
g3/2f/ge d2=f2 A3/2B/cd efg/a/g/f/ ge | \
w:   | 
c2 e2d3/2^c/ dBG3/2A/ B=cBA Bcd2  | 
w:   | 
G3/2F/GA Bcde =f3/2e/dc B3/2A/Bc d2 | \
w:   | 
(3BAB c2(3AGA B2A3/2G/ FAG4z2  | 
w:   | 
d2g2 fga2 abc'/d'/c'/b/ a/b/a/g/f/g/f/e/ d2 | \
w:  ARANAĞME  | 
d2 g2fg aba3/2g/ fed3/2c/ BAG2  | 
w:   | 
d2g2 fga2 abc'/d'/c'/b/ a/b/a/g/f/g/f/e/ d2 | \
w:   | 
d2 g2fg aba3/2g/ fag4z2  | 
w:   | 
g3/2f/ge d2=f2 A3/2B/cd efg/a/g/f/ ge | \
w:   | 
c2 e2d3/2^c/ dBG3/2A/ B=cBA Bcd2  | 
w:   | 
G3/2F/GA Bcde =f3/2e/dc B3/2A/Bc d2 | \
w:   | 
(3BAB c2(3AGA B2A3/2G/ FAG4z2  | 
w:   | 
g4 a2gf e3/2g/fe d4 e=f | e3/2d/ ^cdef deg3/2f/ efg6  | 
w:  *  Sa na  *  lâ *  *  *  yık   |  mı  *  *  *  ey  *  *  *  gül  *  *  *  ten    | 
g3a b3/2a/bg ^f3/2e/fg a3b ag | f4e2 fgag fed4e2  | 
w:  Çe *  vir *  *  *  din  *  *  *  rû  |  yi ni  *  *  ben *  *  *  den    | 
c3d e3/2d/ec _1/4B3/2A/Bc d3e dc | \
w:  Çe *  vir *  *  *  din  *  *  *  rû  | 
_1/4B4A2 Bcdc BAG6  | 
w:  yi ni  *  *  ben *  *  *  den    | 
G2c4B2 c2{d}cB c2d4 | _7/8ed c_1/4Bg^f eddc {d}cBcB cdBA  | 
w:  Ku sur_ *  et *  *  *  tiy  |  se  *  *  *  ef *  *  *  ken *  *  *  *  den    | 
G2c4_1/4B2 c2{d}cB c2d4 | e2 {f}efde fgb3/2a/ gaf2 g4  | 
w:  Ku sur_ *  et *  *  *  tiy  |  se  *  *  *  ef *  *  *  ken *  *  *  den    | 
g3a b3/2a/bg ^f3/2e/fg a3b ag | f4e2 fgag fed4e2  | 
w:  Ha *  ta  *  *  *  ben *  *  *  den   |  a tâ  *  *  sen *  *  *  den    | 
c3d e3/2d/ec _1/4B3/2A/Bc d3e dc | \
w:  Ha *  ta  *  *  *  ben *  *  *  den   | 
_1/4B4A2 Bcdc BAG6  | 
w:  a tâ  *  *  sen *  *  *  den    | 
d2g2 fga2 abc'/d'/c'/b/ a/b/a/g/f/g/f/e/ d2 | \
w:  ARANAĞME  | 
d2 g2fg aba3/2g/ fed3/2c/ BAG2  | 
w:   | 
d2g2 fga2 abc'/d'/c'/b/ a/b/a/g/f/g/f/e/ d2 | \
w:   | 
d2 g2fg aba3/2g/ fag4z2  | 
w:   | 
g3/2f/ge d2=f2 A3/2B/cd efg/a/g/f/ ge | \
w:   | 
c2 e2d3/2^c/ dBG3/2A/ B=cBA Bcd2  | 
w:   | 
G3/2F/GA Bcde =f3/2e/dc B3/2A/Bc d2 | \
w:   | 
(3BAB c2(3AGA B2A3/2G/ FAG4z2  | 
w:   | 
d2g2 fga2 abc'/d'/c'/b/ a/b/a/g/f/g/f/e/ d2 | \
w:  ARANAĞME  | 
d2 g2fg aba3/2g/ fed3/2c/ BAG2  | 
w:   | 
d2g2 fga2 abc'/d'/c'/b/ a/b/a/g/f/g/f/e/ d2 | \
w:   | 
d2 g2fg aba3/2g/ fag4z2  | 
w:   | 
g3/2f/ge d2=f2 A3/2B/cd efg/a/g/f/ ge | \
w:   | 
c2 e2d3/2^c/ dBG3/2A/ B=cBA Bcd2  | 
w:   | 
G3/2F/GA Bcde =f3/2e/dc B3/2A/Bc d2 | \
w:   | 
(3BAB c2(3AGA B2A3/2G/ FAG4z2  | 
w:   | 
g4 a2gf e3/2g/fe d4 e=f | e3/2d/ ^cdef deg3/2f/ efg6  | 
w:  *  Sa na  *  lâ *  *  *  yık   |  mı  *  *  *  ey  *  *  *  gül  *  *  *  ten    | 
g3a b3/2a/bg ^f3/2e/fg a3b ag | f4e2 fgag fed4e2  | 
w:  Çe *  vir *  *  *  din  *  *  *  rû  |  yi ni  *  *  ben *  *  *  den    | 
c3d e3/2d/ec _1/4B3/2A/Bc d3e dc | \
w:  Çe *  vir *  *  *  din  *  *  *  rû  | 
_1/4B4A2 Bcdc BAG6  | 
w:  yi ni  *  *  ben *  *  *  den    | 
G2c4B2 c2{d}cB c2d4 | _7/8ed c_1/4Bg^f eddc {d}cBcB cdBA  | 
w:  Ku sur_ *  et *  *  *  tiy  |  se  *  *  *  ef *  *  *  ken *  *  *  *  den    | 
G2c4_1/4B2 c2{d}cB c2d4 | e2 {f}efde fgb3/2a/ gaf2 g4  | 
w:  Ku sur_ *  et *  *  *  tiy  |  se  *  *  *  ef *  *  *  ken *  *  *  den    | 
g3a b3/2a/bg ^f3/2e/fg a3b ag | f4e2 fgag fed4e2  | 
w:  Ha *  ta  *  *  *  ben *  *  *  den   |  a tâ  *  *  sen *  *  *  den    | 
c3d e3/2d/ec _1/4B3/2A/Bc d3e dc | \
w:  Ha *  ta  *  *  *  ben *  *  *  den   | 
_1/4B4A2 Bcdc BAG6  | 
w:  a tâ  *  *  sen *  *  *  den    | 
|


